client/resources/iconsets/breeze/src/svg/large/icon_note_large_white.svg

<svg xmlns="http://www.w3.org/2000/svg" width="32" height="32" viewBox="0 0 32 32">
 <path style="fill:#ffffff"
       d="M 5.9316406 3 C 5.4152006 3 5 3.4152002 5 3.9316406 L 5 24 L 10 29 L 26.068359 29 C 26.584799 29 27 28.5848 27 28.068359 L 27 3.9316406 C 27 3.4152002 26.584799 3 26.068359 3 L 5.9316406 3 z M 7 5 L 24.091797 5 L 25 5 L 25 8.2011719 L 25 24.798828 L 25 27 L 24.091797 27 L 11 27 L 11 23 L 7 23 L 7 5 z M 11 7 C 10.446 7 10 7.446 10 8 C 10 8.554 10.446 9 11 9 L 21 9 C 21.554 9 22 8.554 22 8 C 22 7.446 21.554 7 21 7 L 11 7 z M 11 11 C 10.446 11 10 11.446 10 12 C 10 12.554 10.446 13 11 13 L 21 13 C 21.554 13 22 12.554 22 12 C 22 11.446 21.554 11 21 11 L 11 11 z M 10.951172 15 C 10.423732 15 10 15.42373 10 15.951172 L 10 16.048828 C 10 16.576266 10.42373 17 10.951172 17 L 16.048828 17 C 16.57627 17 17 16.57627 17 16.048828 L 17 15.951172 C 17 15.423734 16.57627 15 16.048828 15 L 10.951172 15 z M 19.951172 19 C 19.423732 19 19 19.42373 19 19.951172 L 19 20.048828 C 19 20.576266 19.42373 21 19.951172 21 L 21.048828 21 C 21.57627 21 22 20.57627 22 20.048828 L 22 19.951172 C 22 19.423734 21.57627 19 21.048828 19 L 19.951172 19 z "
       />
</svg>

<svg xmlns="http://www.w3.org/2000/svg" width="32" height="32"><path d="M5.932 3A.93.93 0 0 0 5 3.932V24l5 5h16.068a.93.93 0 0 0 .932-.932V3.932A.93.93 0 0 0 26.068 3H5.932zM7 5h17.092H25v3.201 16.598V27h-.908H11v-4H7V5zm4 2a1 1 0 1 0 0 2h10a1 1 0 1 0 0-2H11zm0 4a1 1 0 1 0 0 2h10a1 1 0 1 0 0-2H11zm-.049 4a.95.95 0 0 0-.951.951v.098a.95.95 0 0 0 .951.951h5.098a.95.95 0 0 0 .951-.951v-.098a.95.95 0 0 0-.951-.951h-5.098zm9 4a.95.95 0 0 0-.951.951v.098a.95.95 0 0 0 .951.951h1.098a.95.95 0 0 0 .951-.951v-.098a.95.95 0 0 0-.951-.951h-1.098z" fill="#fff"/></svg>
